X: 92
T: Preludium F-dur
C: Maria Szymanowska
%%abc-version 2.0
%%abcx-abcm2ps-target-version 5.9.1 (29 Sep 2008)
%%abc-creator hum2abc beta
%%abcx-conversion-date 2021/10/04 07:38:38
%%abc-edited-by Anna Matuszewska
%%abcx-initial-encoding-date 2020-07-22
%%humdrum-veritas 3450760077
%%humdrum-veritas-data 1260842653
%%linebreak <none>
%%barnumbers 0
L: 1/8
M: 6/8
N: Derived from pl-kozmzk--mzk-m-31--020_szymanowska-maria--preludium-f-dur.krn
%%staves {1 2}
V: 1 clef=treble
V: 2 clef=bass
K: F
[V:1] [Ff]>[Gg][A/a/][B/b/] c'/d'/e'/f'/g'/a'/ | 
[V:2] [F,,F,]>[G,,G,][A,,/A,/][B,,/B,/] [C,/C/][D,/D/][E,/E/][F,/F/][G,/G/][A,/A/] | 
[V:1] b'/c''/d''/a'/b'/^f'/ g'/^c'/d'/b'/a'/g'/ | 
[V:2] [G,B]!accent![B,,2B,2]-[B,,B,]>[G,,G,][A,,/A,/][B,,/B,/] | 
[V:1] f'e'f' g'a'g' | 
[V:2] [C,C][C,C][C,A,C] [C,B,C][C,B,C][C,B,C] | 
[V:1] f'2z b'/a'/g'/f'/e'/d'/ | 
[V:2] [F,A,CF][F,A,CF][F,A,CF][F,A,CF][F,A,CF][F,A,CF] | 
[V:1] d'c'c' c'd'c' | 
[V:2] [F,B,CE][F,B,CE][F,B,CE][F,B,CE][F,B,CE][F,B,CE] | 
[V:1] c'2z b'/a'/g'/f'/e'/d'/ | 
[V:2] [F,A,CF][F,A,CF][F,A,CF][F,A,CF][F,A,CF][F,A,CF] | 
[V:1] d'c'c' c'd'c' | 
[V:2] [F,B,CE][F,B,CE][F,B,CE][F,B,CE][F,B,CE][F,B,CE] | 
[V:1] c'2z b'/a'/g'/f'/e'/d'/ | 
[V:2] [F,A,CF][F,A,CF][F,A,CF][F,2A,2C2F2]z | 
[V:1] d'^c'c' a=bc' | 
[V:2] A,, [A,EG][A,EG] [A,EG][A,EG][A,EG] | 
[V:1] d'>e'f'/g'/ a'/=b'/c''/a'/f'/d'/ | 
[V:2] D, [A,DF][A,DF] F,, [F,A,D][F,A,D] | 
[V:1] c'f'/e'/d'/c'/ =b/a/g/f/e/d/ | 
[V:2] G,, [G,CE][G,CE] G,, [G,=B,D][G,B,D] | 
[V:1] c>de/f/ g/a/=b/c'/d'/e'/ | 
[V:2] [C,,C,]>[D,,D,][E,,/E,/][F,,/F,/] [G,,/G,/][A,,/A,/][=B,,/=B,/][C,/C/][D,/D/][E,/E/] | 
[V:1] f'/g'/a'/e'/f'/^c'/ d'/^g/a/f'/e'/d'/ | 
[V:2] [F,F]!accent![F,,2F,2]-[F,,F,]>[D,,D,][E,,/E,/][F,,/F,/] | 
[V:1] c'=bc' d'e'd' | 
[V:2] [G,,G,][G,,G,][G,,E,G,] [G,,F,G,][G,,F,G,][G,,F,G,] | 
[V:1] c'2z f'/e'/d'/c'/=b/a/ | 
[V:2] [C,E,G,] [C,G,E][C,G,E] [C,G,E][C,G,E][C,G,E] | 
[V:1] agg gag | 
[V:2] [C,F,G,=B,][C,F,G,=B,][C,F,G,=B,][C,F,G,=B,][C,F,G,=B,][C,F,G,=B,] | 
[V:1] g2z f'/e'/d'/c'/b/a/ | 
[V:2] [C,E,G,C][C,E,G,C][C,E,G,C][C,E,G,C][C,E,G,C][C,E,G,C] | 
[V:1] agg g_ag | 
[V:2] [C,F,G,=B,][C,F,G,=B,][C,F,G,=B,][C,F,G,=B,][C,F,G,=B,][C,F,G,=B,] | 
[V:1] g2z _a'/g'/f'/_e'/d'/c'/ | 
[V:2] [C,_E,G,C][C,E,G,C][C,E,G,C] [E,G,C][E,G,C][E,G,C] | 
[V:1] _e'2d' f'g'_a' | 
[V:2] [F,_A,CD][F,_A,CD][F,_A,CD][F,_A,CD][F,_A,CD][F,_A,CD] | 
[V:1] g'2_e' d'e'd' | 
[V:2] [G,CE][G,CE][G,CE] [G,=B,F][G,=B,F][G,=B,F] | 
[V:1] c'2z _a'/g'/^f'/g'/_e'/c'/ | 
[V:2] [C_E] [C,G,E][C,G,E] [C,G,E][C,G,E][C,G,E] | 
[V:1] g2>g2!accent!_ag | 
[V:2] [C,G,_E][C,G,_E][C,G,_E][C,G,_E][C,G,_E][C,G,_E] | 
[V:1] g3_a'/g'/^f'/g'/d'/=b/ | 
[V:2] [D,F,G,=B,][D,F,G,=B,][D,F,G,=B,][D,F,G,=B,][D,F,G,=B,][D,F,G,=B,] | 
[V:1] g2>g2!accent!_ag | 
[V:2] [D,F,G,=B,][D,F,G,=B,][D,F,G,=B,][D,F,G,=B,][D,F,G,=B,][D,F,G,=B,] | 
[V:1] g3_a'/g'/^f'/g'/=f'/_e'/ | 
[V:2] [C,_E,G,C][C,_E,G,C][C,_E,G,C] [C,E,G,C][C,E,G,C][C,E,G,C] | 
[V:1] d'2c' c'd'_e' | 
[V:2] [_E,G,C][_E,G,C][_E,G,C][_E,G,C][_E,G,C][_E,G,C] | 
[V:1] _e'2d' b'/a'/_a'/g'/_g'/f'/ | 
[V:2] [F,_A,CD][F,_A,CD][F,_A,CD][F,_A,CD][F,_A,CD][F,_A,CD] | 
[V:1] =e'2>e'2f'g' | 
[V:2] [G,B,_DE][G,B,_DE][G,B,_DE][G,B,_DE][G,B,_DE][G,B,_DE] | 
[V:1] g'2f' _d''/c''/=b'/c''/_a'/g'/ | 
[V:2] [_A,CF][_A,CF][_A,CF][_A,CF][_A,CF][_A,CF] | 
[V:1] f'3_d'/c'/=b/c'/_a/g/ | 
[V:2] [_A,CF][_A,CF][_A,CF][_A,CF][_A,CF][_A,CF] | 
[V:1] f6 | 
[V:2] [_A,F] !wedge![_A,,A,]!wedge![=A,,=A,]!wedge![B,,B,]!wedge![=B,,=B,]!wedge![C,C] | 
[V:1] !wedge!F!wedge![FG]!wedge![F_A]!wedge![F=A]!wedge![FB]!wedge![F=B] | 
[V:2] [_D,_D][_D,_D][_D,_D][_D,_D][_D,_D][_D,_D] | 
[V:1] [=E3c3][_d/_d'/]c'/=b/c'/g/e/ | 
[V:2] [C,C] [C,E,G,][C,E,G,] [C,E,G,][C,E,G,][C,E,G,] | 
[V:1] c3!accent!_d'/c'/=b/c'/_a/f/ | 
[V:2] [C,F,_A,][C,F,_A,][C,F,_A,][C,F,_A,][C,F,_A,][C,F,_A,] | 
[V:1] c3_d'/c'/=b/c'/g/e/ | 
[V:2] [C,E,G,] !accent![_D,,_D,][C,,C,] [C,,C,][C,,C,][C,,C,] | 
[V:1] c3_d'/c'/=b/c'/_a/f/ | 
[V:2] [C,,C,]!accent![_D,,_D,][C,,C,] [C,,C,][C,,C,][C,,C,] | 
[V:1] c>^cd/^d/ e/f/^f/g/^g/a/ | 
[V:2] [C,,6C,6] | 
[V:1] b/=b/c'/^c'/d'/^d'/ e'/f'/^f'/g'/^g'/a'/ | 
[V:2] [C,,C,]-[C,,/C,/][^C,,/^C,/][D,,/D,/][^D,,/^D,/] [E,,/E,/][F,,/F,/][^F,,/^F,/][G,,/G,/][^G,,/^G,/][A,,/A,/] | 
[V:1] b'/c''/d''/a'/b'/^f'/ g'/^c'/d'/b'/a'/g'/ | 
[V:2] [B,,B,]!accent![B,,2B,2]-[B,,B,]>[G,,G,][A,,/A,/][B,,/B,/] | 
[V:1] f'e'f' g'a'g' | 
[V:2] [C,C][C,C][C,C] [C,B,C][C,B,C][C,B,C] | 
[V:1] f'2z b'/a'/g'/f'/e'/d'/ | 
[V:2] [F,A,CF][F,A,CF][F,A,CF][F,A,CF][F,A,CF][F,A,CF] | 
[V:1] d'c'c' c'd'c' | 
[V:2] [F,B,CE][F,B,CE][F,B,CE][F,B,CE][F,B,CE][F,B,CE] | 
[V:1] c'2z b'/a'/g'/f'/e'/d'/ | 
[V:2] [F,A,CF][F,A,CF][F,A,CF][F,A,CF][F,A,CF][F,A,CF] | 
[V:1] d'c'c' c'd'c'- | 
[V:2] [F,B,CE][F,B,CE][F,B,CE][F,B,CE][F,B,CE][F,B,CE] | 
[V:1] c'2>-c'2d'c'- | 
[V:2] [F,A,CF][F,A,CF][F,A,C_E] [^F,A,CD][^F,A,CD][^F,A,CD] | 
[V:1] c'!accent!d'c' =bg'g' | 
[V:2] [G,CD][G,CD][G,CD] [G,=B,D][G,=B,D][G,=B,D] | 
[V:1] g'c'_b af'f' | 
[V:2] [CE][CE][CE] [F,C_E][F,C_E][F,C_E] | 
[V:1] f'ba g!accent!d'c' | 
[V:2] [B,D][B,D][B,D] [B,C=E][B,C=E][B,C=E] | 
[V:1] a!accent!d'c' b'a'g' | 
[V:2] [A,CF][A,CF][A,CF] [^C,G,B,E][^C,G,B,E][^C,G,B,E] | 
[V:1] a'2f' !accent!g'>f'e'/d'/ | 
[V:2] [D,F,A,D][D,F,A,D][D,F,A,D] B,,[B,D][B,D] | 
[V:1] d'2c' !accent!d'>c'b/g/ | 
[V:2] C,[A,C][A,C] C,[B,C][B,C] | 
[V:1] f2>f2ga | 
[V:2] [F,A,C][F,A,C][F,A,C] [F,C_E][F,C_E][F,C_E] | 
[V:1] bab d'c'b | 
[V:2] [F,B,D][F,B,D][F,B,D] [F,G,C=E][F,G,C=E][F,G,C=E] | 
[V:1] a2z fga | 
[V:2] [F,A,CF][F,A,CF][F,A,CF] [F,C_E][F,C_E][F,C_E] | 
[V:1] bab c'd'e' | 
[V:2] [F,B,D][F,B,D][F,B,D] [F,G,B,C=E][F,G,B,C=E][F,G,B,C=E] | 
[V:1] f'3g'2f' | 
[V:2] [F,A,CF][F,A,CF][F,A,CF] [_E,A,CF][_E,A,CF][_E,A,CF] | 
[V:1] g'2f' _e''d''c'' | 
[V:2] [D,F,B,F][D,F,B,F][D,F,B,F] [C,F,A,_E][C,F,A,_E][C,F,A,_E] | 
[V:1] d''2b' !accent!c''>b'a'/g'/ | 
[V:2] [B,,F,B,D][B,,F,B,D][B,,F,B,D] [E,G,B,C][E,G,B,C][E,G,B,C] | 
[V:1] g'2f' !accent!g'>f'_e'/c'/ | 
[V:2] [F,B,D][F,B,D][F,B,D] [F,A,C_E][F,A,C_E][F,A,C_E] | 
[V:1] b B/c/d/_e/ f/g/a/b/c'/d'/ | 
[V:2] [B,D] [B,,,/B,,/][C,,/C,/][D,,/D,/][_E,,/_E,/] [F,,/F,/][G,,/G,/][A,,/A,/][B,,/B,/][C,/C/][D,/D/] | 
[V:1] _e'/f'/g'/d'/e'/=b/ c'/^f/g/e'/d'/c'/ | 
[V:2] [_E,_E]!accent![_E,,2E,2]-[E,,E,]>.[C,,C,].[D,,/D,/].[E,,/E,/] | 
[V:1] bab c'd'c' | 
[V:2] [F,,F,][F,,F,][F,,D,F,] [F,,E,F,][F,,E,F,][F,,E,F,] | 
[V:1] b2z _e'/d'/c'/b/a/g/ | 
[V:2] [B,,D,F,] [B,,D,F,B,][B,,D,F,B,] [B,,D,F,B,][B,,D,F,B,][B,,D,F,B,] | 
[V:1] gff fgf | 
[V:2] [B,,E,F,A,][B,,E,F,A,][B,,E,F,A,][B,,E,F,A,][B,,E,F,A,][B,,E,F,A,] | 
[V:1] f2z _e'/d'/c'/b/a/g/ | 
[V:2] [B,,D,F,B,][B,,D,F,B,][B,,D,F,B,][B,,D,F,B,][B,,D,F,B,][B,,D,F,B,] | 
[V:1] gff fgf | 
[V:2] [B,,E,F,A,][B,,E,F,A,][B,,E,F,A,][B,,E,F,A,][B,,E,F,A,][B,,E,F,A,] | 
[V:1] f2z e'/d'/c'/b/a/g/ | 
[V:2] [B,,D,F,B,][B,,D,F,B,][B,,D,F,B,][B,,2D,2F,2B,2]z | 
[V:1] g^ff d=e^f | 
[V:2] D,, [D,A,C][D,A,C] [D,A,C][D,A,C][D,A,C] | 
[V:1] g>ab/c'/ d'/e'/f'/g'/a'/g'/ | 
[V:2] G,, [G,B,D][G,B,D] B,, [G,B,D][G,B,D] | 
[V:1] f'e'f' g'a'g' | 
[V:2] [C,A,C][C,A,C][C,A,C] [C,B,C][C,B,C][C,B,C] | 
[V:1] f'2z fga | 
[V:2] [F,A,C][F,A,C][F,A,C] [F,C_E][F,C_E][F,C_E] | 
[V:1] bab d'c'b | 
[V:2] [F,B,D][F,B,D][F,B,D] [F,G,B,C=E][F,G,B,C=E][F,G,B,C=E] | 
[V:1] a2>f2ga | 
[V:2] [F,A,CF][F,A,CF][F,A,CF] [F,C_E][F,C_E][F,C_E] | 
[V:1] bab c'd'c' | 
[V:2] [F,B,D][F,B,D][F,B,D] [F,B,C=E][F,B,C=E][F,B,C=E] | 
[V:1] c'2>-c'2d'c'- | 
[V:2] [F,A,CF][F,A,CF][F,A,C_E] [^F,A,CD][^F,A,CD][^F,A,CD] | 
[V:1] c'd'c' =bg'g' | 
[V:2] [G,CD][G,CD][G,CD] [G,=B,D][G,=B,D][G,=B,D] | 
[V:1] !accent!g'c'_b af'f' | 
[V:2] [CE][CE][CE] [F,C_E][F,C_E][F,C_E] | 
[V:1] !accent!f'ba g!accent!d'c' | 
[V:2] [B,D][B,D][B,D] [B,C=E][B,C=E][B,C=E] | 
[V:1] a!accent!d'c' !accent!b'a'g' | 
[V:2] [A,CF][A,CF][A,CF] [^C,G,B,E][^C,G,B,E][^C,G,B,E] | 
[V:1] !accent!a'2f' !accent!g'>f'e'/d'/ | 
[V:2] [D,F,A,D][D,F,A,D][D,F,A,D] [B,,F,G,D][B,,F,G,D][B,,F,G,D] | 
[V:1] d'2c' !accent!d'>c'b/g/ | 
[V:2] [C,F,A,C][C,F,A,C][C,F,A,C] [C,B,C][C,B,C][C,B,C] | 
[V:1] f2z e/g/b/_d'/e'/b'/ | 
[V:2] [F,A,C][F,A,C][F,A,C] [F,B,_DE][F,B,_DE][F,B,_DE] | 
[V:1] a'2z g'a'g' | 
[V:2] [F,A,CF][F,A,CF][F,A,CF] [G,B,CE][G,B,CE][G,B,CE] | 
[V:1] c''2z g/b/_d'/e'/g'/_d''/ | 
[V:2] [F,A,CF][F,A,CF][F,A,CF] [F,B,_DE][F,B,_DE][F,B,_DE] | 
[V:1] c''2z g'a'g' | 
[V:2] [F,A,CF][F,A,CF][F,A,CF] [F,B,CE][F,B,CE][F,B,CE] | 
[V:1] f'/e'/d'/c'/b/a/ g/f/e/d/c/B/ | 
[V:2] [F,/F/][E,/E/][D,/D/][C,/C/][B,,/B,/][A,,/A,/] [G,,/G,/][F,,/F,/][E,,/E,/][D,,/D,/][C,,/C,/][B,,,/B,,/] | 
[V:1] A/B/c/d/e/f/ g/a/b/c'/d'/e'/ | 
[V:2] [A,,,/A,,/][B,,,/B,,/][C,,/C,/][D,,/D,/][E,,/E,/][F,,/F,/] [G,,/G,/][A,,/A,/][B,,/B,/][C,/C/][D,/D/][E,/E/] | 
[V:1] f' z !accent![EBc][FAc] z [E,B,C-] | 
[V:2] [F,2F2][C,C][F,A,] z [C,,C,] | 
[V:1] !fermata![F,6A,6C6] |]  
[V:2] !fermata![F,,6A,,6] |]  


